X: 20899
T: Josefin's
R: waltz
M: 3/4
K: Gmajor
|:D2 G2 A2|B2 d2 c2|B2 A2 G2|D4 E2|E3 E E2|E2 G2 F2|E6|D6|
D2 G2 A2|B2 d2 c2|B2 A2 G2|D4 E2|E3 E E2|D2 F2 G2|A6|1 A2 G2 E2:|2 A2 B2 c2||
|:d2 B2 d2|g4 f2|e6|d6|c2 e2 d2|c2 B2 A2|B3 c B2|A2 B2 c2|
d2 B2 d2|g4 f2|e6|d6|c2 e2 d2|c2 B2 A2|B3 c B2|A2 B2 c2|
B2 A2 G2|F4 G2|G6|c2 d2 c2|B2 D2 G2|F3 E F2|G6|1 G2 B2 c2:|2 G6||

